lib/healthicons/icons/solid/shapes/triangle_large.svg

<svg fill="none" height="48" viewBox="0 0 48 48" width="48" xmlns="http://www.w3.org/2000/svg"><g fill="#333"><path d="m24 42h-18l9-18 9-18 9 18 9 18z"/><path clip-rule="evenodd" d="m24 5c.3788 0 .725.214.8944.55279l18 36.00001c.155.31.1385.6781-.0437.9729-.1823.2948-.5041.4743-.8507.4743h-36c-.34658 0-.66844-.1795-.85065-.4743s-.19877-.6629-.04378-.9729l18.00003-36.00001c.1694-.33879.5156-.55279.8944-.55279zm0 3.23607-16.38197 32.76393h32.76397z" fill-rule="evenodd"/></g></svg>

<svg width="48" height="48" viewBox="0 0 48 48" fill="none" xmlns="http://www.w3.org/2000/svg">
<path d="M24 5C24.3788 5 24.725 5.214 24.8944 5.55279L42.8944 41.5528C43.0494 41.8628 43.0329 42.2309 42.8507 42.5257C42.6684 42.8205 42.3466 43 42 43H6C5.65342 43 5.33156 42.8205 5.14935 42.5257C4.96714 42.2309 4.95058 41.8628 5.10557 41.5528L23.1056 5.55279C23.275 5.214 23.6212 5 24 5Z" fill="#333333"/>
</svg>
